assets/icons/qvision/tour.svg

<svg xmlns="http://www.w3.org/2000/svg" height="24" viewBox="0 0 24 24" width="24"><path d="M0 0h24v24H0z" fill="none"/><path d="M21 4H7V2H5v20h2v-8h14l-2-5 2-5zm-6 5c0 1.1-.9 2-2 2s-2-.9-2-2 .9-2 2-2 2 .9 2 2z"/></svg>

<svg width="24" height="24" viewBox="0 0 24 24" fill="none" xmlns="http://www.w3.org/2000/svg">
<g clip-path="url(#clip0_147_4909)">
<path d="M21 4H7V2H5V22H7V14H21L19 9L21 4ZM15 9C15 10.1 14.1 11 13 11C11.9 11 11 10.1 11 9C11 7.9 11.9 7 13 7C14.1 7 15 7.9 15 9Z" fill="#323232"/>
</g>
<defs>
<clipPath id="clip0_147_4909">
<rect width="24" height="24" fill="white"/>
</clipPath>
</defs>
</svg>
